X:1
T:6 Gesänge, Op.14
T:Waldfahrt
T:6 Gesänge, Op.14
T:Theodor Körner (trans. E. M. Ward)
T:Robert Franz
T:3. Waldfahrt The Woods
T:OpenScore (CC0)
T:OpenScore (CC0)
T:OpenScore (CC0)
T:OpenScore (CC0)
T:OpenScore (CC0)
T:OpenScore (CC0)
T:OpenScore (CC0)
C:Robert Franz
Z:Theodor Körner
Z:OpenScore (CC0)
%%score 1 { ( 2 4 ) | ( 3 5 ) }
L:1/8
Q:1/4=100
M:3/8
K:E
V:1 treble nm="Singstimme\nVoice"
V:2 treble nm="Pianoforte"
V:4 treble 
V:3 bass 
V:5 bass 
V:1
"^Allegretto con grazia""^Frisch und leicht" z3 | z3 | z3 | z2!mf! G | B2 B | e2 G | B2 B | %7
w: |||Im|Wald', im|Wald' ist's|frisch und|
w: |||The|woods are|fair, and|fresh, and|
 G2 (E/F/) | G3/2 G/ G | c3/2 G/ G | B2 ^A | G2!p! G/ G/ | (=AG) F | G E B, | (DC) B, | %15
w: grün, da *|we- hen die|Zwei- ge, die|Blu- men|blüh'n, durch die|Wi- * pfel|lacht uns in's|Herz _ hin-|
w: green, There, *|wa- ving, fair|bran- ches and|flowers are|seen, Through the|droop- * ing|boughs, to my|heart's _ de-|
 E2"^cresc." G | c2 B | A3/2 G/ F | d2 c | B2!p! =A |!<(! G2!<)! B | (eG) A |!>(! B3 | E2!>)! z | %24
w: ein das|Him- mel-|blau und der|Son- nen-|schein im|Wald', im|küh- * len|Wal-|de.|
w: light, Smile|Heaven's blue|sky and the|sun- shine|bright, In|wood- lands|cool * and|sha-|dy.|
 z3 | z2!mf! G | B2 B | e2 G/ G/ | B2 B | G2 (E/F/) | G3/2 G/ G | c3/2 G/ G | B2 ^A | G2!p! G | %34
w: |Im|Wald', im|Wald' ist der|Lie- be|Reich, da *|sin- gen die|Vög- lein auf|je- dem|Zweig, da|
w: |The|wood- lands|fair are the|realms of|love, There *|war- ble the|birds on the|boughs a-|bove; There|
 (=AG) F | G3/2 E/ B, | D C B, |"^cresc." E2 G/ G/ | c2[Q:1/4=90] B | A3/2 G/ F | d2 c | B2!p! A | %42
w: wiegt _ die|Blu- men  ein|ko- sen- der|Wind, und ich|wieg' und|küs- se dich,|herz'- ges|Kind, im|
w: flow'rs _ are|rock'd on the|whis- per- ing|air, and I|rock and|kiss thee, my|darl- ing,|there. In|
!<(! G2 B!<)! | (eG) A |!>(! B3!>)! | E2 z | z3 | z2!mf![Q:1/4=100] G | B2 B/ B/ | e G A | %50
w: Wald', im|küh- * len|Wal-|de.||Glüht|roth durch die|Zwei- ge der|
w: wood- lands|cool * and|sha-|dy||Red|shines through the|bran- ches the|
!>(! B2 D!>)! | E2 F |!p! (G3/2{/B}A/) G | c3/2 G/ G | B2 ^A | G2 z |!mf! =A G F | (GE) B, | %58
w: A- bend-|schein, und|däm- * mert|lei- se die|Nacht her-|ein:|dann zieh'n wir|heim, * dann|
w: eve- ning|glow, And|night * steals|on- ward, so|calm, so|slow.|Gai- ly for|home * we|
 (D{ED}C) B, | (E2 G) |"^cresc." c G B | A3/2 G/ F | d2 c | B2 =A |!<(! G2 B!<)! |!f! e2 ^A | %66
w: klingt _ und|blüht _|Wald- lust, Wald-|rau- schen noch|durch's Ge-|müth vom|Wald, vom|küh- len|
w: then _ de-|part, _|Joy of the|wood- lands with-|in each|heart, Of|wood- lands|cool and|
!>(! B3 |!mf! E2!>)![Q:1/4=85] z | z3 | z3 |] %70
w: Wal-|de.|||
w: sha-|dy.|||
V:2
!p! (3(E/!<(!B,/E/ (3G/E/G/ (3B/G/B/!<)! |!>(! e2) .[ee']!>)! |!<(! ([Gg]>[Aa]!<)!!>(![Bb] | %3
 [Ee]2)!>)! z |!mf! (3(E/!<(!B,/E/ (3G/E/G/ (3B/G/B/!<)! |!>(! e2)!>)! z | (((([A,DFB]3 | %7
 [G,EG]2)))) z |!mf! (3(C/!<(!G,/C/ (3E/C/E/ (3G/E/G/!<)! |!>(! c2)!>)! z |!p!!<(! D3-!<)! | D2 z | %12
!p! (3(B,/!<(!=A,/B,/ (3D/B,/D/ [A,B,F]!<)! |!>(! E2) z!>)! | %14
!<(! (3(B,/A,/B,/ (3D/B,/D/!<)!!>(! [A,B,F] | [G,B,E]2)!>)! z | %16
!<(! (3(C/B,/C/ (3^E/C/E/!<)!!>(! [B,CG] | [A,CF]2)!>)! z | %18
!<(! (3(D/C/D/ (3^^F/D/F/!<)!!>(! [CD^A] | [B,DG]2)!>)!!p! [=A,D^F] | %20
!<(! (3(E/B,/E/ (3G/E/G/ (3B/G/B/!<)! |!>(! eGA)!>)! |!<(! ([F,D]>!>(![G,E]!<)![A,F] | %23
 [G,B,E]2)!>)!!mf! !arpeggio!.[EGce] |!<(! (!arpeggio![B,G]2!<)! [DF] | [G,B,E]2) z | %26
!mf! (3(E/!<(!B,/E/ (3G/E/G/ (3B/G/B/!<)! |!>(! e2)!>)! z | ((((!arpeggio![A,DFB]3 | %29
!>(! [G,EG]2))))!>)! z | (3(C/!<(!G,/C/ (3E/C/E/ (3G/E/G/!<)! |!>(! c2)!>)! z |!p!!<(! D3-!<)! | %33
 D2 z |!p!!<(! (3(B,/=A,/B,/ (3D/B,/D/ [A,B,F]!<)! | E2) z | %36
!<(! (3(B,/A,/B,/ (3D/B,/D/!<)!!>(! [A,B,F] | [G,B,E]2)!>)! z | %38
!<(! (3(C/B,/C/ (3^E/C/E/!<)!!>(! [B,CG] | [A,CF]2)!>)! z | %40
!<(! (3(D/C/D/ (3^^F/D/F/!<)!!>(! [CD^A] | [B,DG]2)!>)!!p! [=A,D^F] | %42
!<(! (3(E/B,/E/ (3G/E/G/ (3B/G/B/!<)! |!>(! eGA)!>)! |!<(! ([F,D]>!<)!!>(![G,E][A,F]!>)! | %45
!>(! [G,B,E]2)!>)!!mf! !arpeggio!.[EGce] |!<(! (!arpeggio![B,G]2!<)!!>(! [DF]!>)! | [G,B,E]2) z | %48
!mf! (3(E/!<(!B,/E/ (3G/E/G/ (3B/G/B/!<)! |!>(! e2)!>)! z | ((([A,DF]3 | [G,E]2))) z | %52
!p! (3(C/!<(!G,/C/ (3E/C/E/ (3G/E/G/!<)! |!>(! [EGc]>[EGB]!>)![EG^A]) |!>(! ([DGB]2 [C^^F^A] | %55
 [B,DG]2)!>)! z |!mf! (3(B,/!<(!=A,/B,/ (3D/B,/D/!<)! [A,B,F] |!>(! E2)!>)! z | %58
!<(! (3(B,/A,/B,/ (3D/B,/D/!<)! [A,B,F] | [G,B,E]2) z |!<(! (3(C/B,/C/ (3^E/C/E/!<)! [B,CG] | %61
!>(! [A,CF]2)!>)! z |!<(! (3(D/C/D/ (3^^F/D/F/!<)! [CD^A] |!>(! [B,DG]2)!>)! [A,D^F] | %64
!<(! (3(E/B,/E/ (3G/E/G/ (3B/G/B/!<)! |!f! [EFe]3) | (([=A,B,FB]3 | [G,E]2))!mf! !arpeggio![B,G] | %68
 (([A,B,-DF]3 | [G,B,E]2)) z |] %70
V:3
!ped! (3(E,/B,,/E,/ (3G,/E,/G,/ (3B,/G,/B,/ | E2)!ped-up! .[^A,,C,G,] | ([B,,E,B,]2 [B,,D,=A,] | %3
 [E,,B,,G,]2) z |!ped! (3(E,/B,,/E,/ (3G,/E,/G,/ (3B,/G,/B,/ | E2)!ped-up! z | %6
!<(!!ped! (B,,,3!<)!!ped-up! |!>(! E,,2)!>)! z |!ped! (3(C,/G,,/C,/ (3E,/C,/E,/ (3G,/E,/G,/ | %9
 C2)!ped-up! z | (D,2 D,, | G,,2) z |!ped-up!!ped! (B,,,3 |[I:staff -1] [G,B,][I:staff +1]E,B,, | %14
!ped! B,,2 B,,,!ped-up! | E,,2) z |"^cresc."!ped! (C,,3!ped-up! | F,,2) z |!ped! (D,,3!ped-up! | %19
 G,,2) B,, |!ped! (3(E,/B,,/E,/ (3G,/E,/G,/ (3B,/G,/B,/!ped-up! | EG,A,) | (B,,,3 | %23
 E,,2) .[^A,,,^A,,] |!ped! E,>B,=A,!ped-up! | x3 | %26
!ped! (3(E,/B,,/E,/ (3G,/E,/G,/ (3B,/G,/B,/!ped-up! | E2) z |!<(!!ped! (B,,,3!ped-up!!<)! | %29
 E,,2) z |!ped! (3(C,/G,,/C,/ (3E,/C,/E,/ (3G,/E,/G,/!ped-up! | C2) z | (D,2 D,, | G,,2) z | %34
!ped! B,,,3!ped-up! |!>(![I:staff -1] ([G,B,][I:staff +1]E,B,,)!>)! |!ped! (B,,2 B,,,!ped-up! | %37
 E,,2) z |"^cresc."!ped! (C,,3!ped-up! | F,,2) z |!ped! (D,,3!ped-up! | G,,2) B,, | %42
!ped! (3(E,/B,,/E,/ (3G,/E,/G,/ (3B,/G,/B,/!ped-up! | EG,A,) | (B,,,3 | E,,2) .[^A,,,^A,,] | %46
!ped! E,>B,=A,!ped-up! | [E,,,E,,]2 z |!ped! (3(E,/B,,/E,/ (3G,/E,/G,/ (3B,/G,/B,/!ped-up! | %49
 E2) z |!>(! (B,,,3!>)! | C,,2) z |!ped! (3(C,/G,,/C,/ (3E,/C,/E,/!ped-up! (3G,/E,/G,/ | %53
 [^A,,,^A,,]>[B,,,B,,][C,,C,]) | ([D,,D,]2 [D,,,D,,] | [G,,,G,,]2) z |!ped! B,,,3!ped-up! | %57
[I:staff -1] ([G,B,][I:staff +1]E,B,,) |!ped! (B,,2 B,,,!ped-up! | E,,2) z | %60
"^cresc."!ped! (([C,,G,,^E,]3!ped-up! | [F,,C,]2)) z |!ped! ((([D,,^A,,^^F,]3!ped-up! | %63
 [G,,D,]2))) B,, |!ped! (3(E,/B,,/E,/ (3G,/E,/G,/ (3B,/G,/B,/!ped-up! |!ped! [F,,C,^A,]3)!ped-up! | %66
!ped! ([B,,,D,]3!ped-up! | [E,,B,,]2) E, |!ped! (B,,,3!ped-up! | E,,,2) z |] %70
V:4
 x3 | x3 | x3 | x3 | x3 | x3 | x3 | x3 | x3 | x3 | [G,B,]2!>(! [^^F,C] | [G,B,]2!>)! x | x3 | x3 | %14
 x3 | x3 | x3 | x3 | x3 | x3 | x3 | x3 | B,3 | x3 | x/ x/ x/!>(! x/ x/!>)! x/ | x3 | x3 | x3 | x3 | %29
 x3 | x3 | x3 | [G,B,]2!>(! [^^F,C] | [G,B,]2!>)! x | x3 | x3 | x3 | x3 | x3 | x3 | x3 | x3 | x3 | %43
 x3 | B,3 | x3 | x3 | x3 | x3 | x3 | x3 | x3 | x3 | x3 | x3 | x3 | x3 | x3 | x3 | x3 | x3 | x3 | %62
 x3 | x3 | x3 | x3 | x3 | x3 | x3 | x3 |] %70
V:5
 x3 | x3 | x3 | x3 | x3 | x3 | x3 | x3 | x3 | x3 | x3 | x3 | x3 | E,,2 G,, | x3 | x3 | x3 | x3 | %18
 x3 | x3 | x3 | x3 | x3 | x3 | (([B,,,B,,]3 | [E,,,E,,]2)) z | x3 | x3 | x3 | x3 | x3 | x3 | x3 | %33
 x3 | x3 | E,,2 G,, | x3 | x3 | x3 | x3 | x3 | x3 | x3 | x3 | x3 | x3 | [B,,,B,,]3 | x3 | x3 | x3 | %50
 x3 | x3 | x3 | x3 | x3 | x3 | x3 | E,,2 G,, | x3 | x3 | x3 | x3 | x3 | x3 | x3 | x3 | x3 | x2 z | %68
 x3 | x3 |] %70

